src/objects/computer/1F5A5.svg

<?xml version="1.0" encoding="UTF-8"?>
<svg id="emoji" xmlns="http://www.w3.org/2000/svg" viewBox="0 0 72 72">
  <g id="grid">
    <path d="m68,4v64H4V4h64M72,0H0v72h72V0Z" fill="#b3b3b3"/>
    <path d="m12.923,10.9583h46.1539c1.0621,0,1.9231.861,1.9231,1.9231h0v46.1538c0,1.0621-.861,1.9231-1.9231,1.9231H12.9231c-1.0621,0-1.9231-.861-1.9231-1.9231h0V12.8813c0-1.062.861-1.923,1.923-1.923h0Z" fill="none" stroke="#00a5ff" stroke-miterlimit="10" stroke-width=".1"/>
    <rect x="16" y="4" width="40" height="64" rx="2.2537" ry="2.2537" fill="none" stroke="#00a5ff" stroke-miterlimit="10" stroke-width=".1"/>
    <rect x="4" y="16" width="64" height="40" rx="2.2537" ry="2.2537" fill="none" stroke="#00a5ff" stroke-miterlimit="10" stroke-width=".1"/>
    <circle cx="36" cy="36" r="29" fill="none" stroke="#00a5ff" stroke-miterlimit="10" stroke-width=".1"/>
  </g>
  <g id="color">
    <path d="m44.1833,60.9583c0,4.9583,7.8401,7.0417,7.8401,7.0417h-31.6205s7.8401-2.0833,7.8401-7.0417v-4.9336h15.7785l.1618,4.9336Z" fill="#d0cfce"/>
    <path d="m63.1941,56H9.2323c-2.8026,0-5.0746-2.272-5.0746-5.0746V16.033c0-2.8026,2.272-5.0746,5.0746-5.0746h53.9618c2.8026,0,5.0746,2.272,5.0746,5.0746v34.8924c0,2.8026-2.272,5.0746-5.0746,5.0746Z" fill="#9b9b9a"/>
    <path d="m67.5469,46.7214L4.2132,24.2006v-9.4576c0-1.8455,1.827-3.135,3.5659-2.5167l59.7678,21.2528v13.2423Z" fill="#fff"/>
    <path d="m68.2687,47.5629s.2122,4.1442-1.5499,6.0805c-.359.3945-2.6448,1.8549-3.5247,1.8535l-53.9618.5c-2.8026,0-4.164-1.852-4.164-2.4434l-.9106-5.9906" fill="#d0cfce"/>
  </g>
  <g id="line">
    <path d="m63.1941,56H9.2323c-2.8026,0-5.0746-2.272-5.0746-5.0746V16.033c0-2.8026,2.272-5.0746,5.0746-5.0746h53.9618c2.8026,0,5.0746,2.272,5.0746,5.0746v34.8924c0,2.8026-2.272,5.0746-5.0746,5.0746Z" fill="none" stroke="#000" stroke-linecap="round" stroke-linejoin="round" stroke-width="2"/>
    <path d="m63.1941,55.2469l-53.9618.75c-2.8026,0-4.164-1.852-4.164-2.4434l-.9106-5.9906" fill="none" stroke="#000" stroke-linecap="round" stroke-linejoin="round" stroke-width=".9187"/>
    <path d="m63.1941,55.5l-53.9618.5c-2.8026,0-5.0746-2.272-5.0746-5.0746V16.033c0-2.8026,2.272-5.0746,5.0746-5.0746h53.9618c2.8026,0,5.0746,2.272,5.0746,5.0746l-.5,34.8924c0,2.8026-1.772,4.5746-4.5746,4.5746Z" fill="none" stroke="#000" stroke-linecap="round" stroke-linejoin="round" stroke-width="2"/>
    <line x1="7.2132" y1="48.4924" x2="65.2132" y2="48.4924" fill="none" stroke="#000" stroke-linecap="round" stroke-linejoin="round" stroke-width="2"/>
    <path d="m43.1833,60.9583c0,4.9583,8.8401,7.0417,8.8401,7.0417h-31.6205s8.8401-2.0833,8.8401-7.0417" fill="none" stroke="#000" stroke-linecap="round" stroke-linejoin="round" stroke-width="2"/>
  </g>
</svg>

<svg id="emoji" viewBox="0 0 72 72" xmlns="http://www.w3.org/2000/svg">
  <g id="grid">
    <path fill="#b3b3b3" d="M68,4V68H4V4H68m4-4H0V72H72V0Z"/>
    <path fill="none" stroke="#00a5ff" stroke-miterlimit="10" stroke-width="0.1" d="M12.923,10.9583H59.0769A1.9231,1.9231,0,0,1,61,12.8814V59.0352a1.9231,1.9231,0,0,1-1.9231,1.9231H12.9231A1.9231,1.9231,0,0,1,11,59.0352V12.8813A1.923,1.923,0,0,1,12.923,10.9583Z"/>
    <rect x="16" y="4" rx="2.2537" width="40" height="64" fill="none" stroke="#00a5ff" stroke-miterlimit="10" stroke-width="0.1"/>
    <rect x="16" y="4" rx="2.2537" width="40" height="64" transform="translate(72) rotate(90)" fill="none" stroke="#00a5ff" stroke-miterlimit="10" stroke-width="0.1"/>
    <circle cx="36" cy="36" r="29" fill="none" stroke="#00a5ff" stroke-miterlimit="10" stroke-width="0.1"/>
  </g>
  <g id="color">
    <path fill="#D0CFCE" stroke="none" d="M44.1833,60.9583c0,4.9583,7.8401,7.0417,7.8401,7.0417H36.4029h-0.3795H20.4029 c0,0,7.8401-2.0833,7.8401-7.0417v-4.9336h15.7785L44.1833,60.9583z"/>
    <path fill="#9B9B9A" stroke="none" stroke-linecap="round" stroke-linejoin="round" stroke-miterlimit="10" stroke-width="2" d="M63.1941,56H9.2323c-2.8026,0-5.0746-2.272-5.0746-5.0746V16.033c0-2.8026,2.272-5.0746,5.0746-5.0746h53.9618 c2.8026,0,5.0746,2.272,5.0746,5.0746v34.8924C68.2687,53.728,65.9967,56,63.1941,56z"/>
    <path fill="#FFFFFF" stroke="none" d="M67.5469,46.7214L4.2132,24.2006V14.743c0-1.8455,1.827-3.135,3.5659-2.5167l59.7678,21.2528V46.7214z"/>
    <path fill="#D0CFCE" stroke="none" stroke-linecap="round" stroke-linejoin="round" stroke-miterlimit="10" stroke-width="0.9187" d="M68.2687,47.5629c0,0,0.1688,4.8556-1.5499,6.8305s-0.7221,1.6035-3.5247,1.6035H9.2323c-2.8026,0-4.164-1.852-4.164-2.4434 l-0.9106-5.9906"/>
  </g>
  <g id="hair"/>
  <g id="skin"/>
  <g id="skin-shadow"/>
  <g id="line">
    <path fill="none" stroke="#000000" stroke-linecap="round" stroke-linejoin="round" stroke-miterlimit="10" stroke-width="2" d="M63.1941,56H9.2323c-2.8026,0-5.0746-2.272-5.0746-5.0746V16.033c0-2.8026,2.272-5.0746,5.0746-5.0746h53.9618 c2.8026,0,5.0746,2.272,5.0746,5.0746v34.8924C68.2687,53.728,65.9967,56,63.1941,56z"/>
    <path fill="none" stroke="#000000" stroke-linecap="round" stroke-linejoin="round" stroke-miterlimit="10" stroke-width="0.9187" d="M68.2687,47.5629c0,0,0.1688,4.8556-1.5499,6.8305s-0.7221,1.6035-3.5247,1.6035H9.2323c-2.8026,0-4.164-1.852-4.164-2.4434 l-0.9106-5.9906"/>
    <path fill="none" stroke="#000000" stroke-linecap="round" stroke-linejoin="round" stroke-miterlimit="10" stroke-width="2" d="M63.1941,56H9.2323c-2.8026,0-5.0746-2.272-5.0746-5.0746V16.033c0-2.8026,2.272-5.0746,5.0746-5.0746h53.9618 c2.8026,0,5.0746,2.272,5.0746,5.0746v34.8924C68.2687,53.728,65.9967,56,63.1941,56z"/>
    <line x1="7.2132" x2="65.2132" y1="48.4924" y2="48.4924" fill="none" stroke="#000000" stroke-linecap="round" stroke-linejoin="round" stroke-miterlimit="10" stroke-width="2"/>
    <path fill="none" stroke="#000000" stroke-linecap="round" stroke-linejoin="round" stroke-miterlimit="10" stroke-width="2" d="M43.1833,60.9583c0,4.9583,8.8401,7.0417,8.8401,7.0417H36.4029h-0.3795H20.4029c0,0,8.8401-2.0833,8.8401-7.0417"/>
  </g>
</svg>
